note-plus-outline.svg

<svg fill="currentColor" viewBox="0 0 24 24"><path d="M5 19V5h7v7h7v1c.7 0 1.37.13 2 .35V9l-6-6H5c-1.11 0-2 .89-2 2v14a2 2 0 0 0 2 2h8.35c-.22-.63-.35-1.3-.35-2zm9-14.5 5.5 5.5H14zM23 18v2h-3v3h-2v-3h-3v-2h3v-3h2v3z"/></svg>

<svg  viewBox="0 0 24 24" fill="currentColor"><path  d="M5 19V5H12V12H19V13C19.7 13 20.37 13.13 21 13.35V9L15 3H5C3.89 3 3 3.89 3 5V19C3 20.1 3.89 21 5 21H13.35C13.13 20.37 13 19.7 13 19H5M14 4.5L19.5 10H14V4.5M23 18V20H20V23H18V20H15V18H18V15H20V18H23Z"/></svg>
